X: 552
T: Miss Ellison Chalmer's fancy
%R: reel
B: "Twenty Four Country Dances for the Year 1805", Tho. Preston, ed. p.236 #2
F: http://folkopedia.efdss.org/images/archive/0/02/20121211105513%21Preston_24_1805.PDF
Z: 2014 John Chambers <jc:trillian.mit.edu>
M: C|
L: 1/8
K: D
A |\
FADA FAdB | ADFA GE-EG |\
FADA FAdB | AFEG FDD :|\
|: f |\
afdf gfed |
gefd ce-eg |\
[1 afdf geag | faeg fdd :|\
[2 afge fdec | Bd AF ADD |]
%%begintext align
%% Set and change sides back again. lead down
%% the middle up again and turn your partner.
%%endtext

%%sep 1 1 500
%%sep 1 1 500
